svg/set/WHO/C.svg

<?xml version="1.0" encoding="UTF-8"?>
<svg id="Layer_2" data-name="Layer 2" xmlns="http://www.w3.org/2000/svg" viewBox="0 0 915.24 1047.84">
  <defs>
    <style>
      .cls-1, .cls-2 {
        fill-rule: evenodd;
        stroke-width: 0px;
      }

      .cls-2 {
        fill: #fff;
      }
    </style>
  </defs>
  <g id="Layer_1-2" data-name="Layer 1">
    <path class="cls-2" d="M359.8,142.18v-67.57L457.62,0l97.82,74.6v67.57l359.8,117.18-13.99,148.39-31.26-9.94-44.46,432.49,31.14-6.62-10.16,133.93-388.88,90.23-388.88-90.23-10.16-133.93,31.14,6.62-44.46-432.49-31.26,9.94L0,259.36l359.8-117.18h0Z"/>
    <path class="cls-1" d="M457.62,222.3L51.3,351.37l-5.87-62.18,412.19-134.26,412.19,134.26-5.87,62.18-406.32-129.07h0ZM457.62,118.49l-55.39,18.78v-41.66l55.39-42.24,55.39,42.24v41.66l-55.39-18.78h0ZM457.62,1004.28l-348.94-80.96-3.52-46.34,352.45,74.95,352.45-74.95-3.52,46.34-348.94,80.96ZM441.46,264.49v650.72l-307.66-70.87-48.22-469.14,355.87-110.71h0ZM272.38,509.22l129.85-19.74v-155.36l-134.24,38.1,4.39,137h0ZM233.89,381.9l-101.22,28.73,10.33,118.27,94.27-14.34-3.38-132.66h0ZM473.78,264.49l355.87,110.71-48.22,469.14-307.66,70.87V264.49ZM681.35,381.9l-3.38,132.66,94.27,14.34,10.33-118.27-101.22-28.73ZM537.07,533.47l1.45,106.93,80.26-1.92,1.92-98.52-83.63-6.49ZM642.86,509.22l4.39-137-134.24-38.1v155.36l129.85,19.74Z"/>
  </g>
</svg>

<?xml version="1.0" encoding="UTF-8" standalone="no"?>
<svg
   id="Layer_2"
   data-name="Layer 2"
   viewBox="0 0 915.24 1047.83"
   version="1.1"
   width="915.23999"
   height="1047.83"
   xmlns="http://www.w3.org/2000/svg"
   xmlns:svg="http://www.w3.org/2000/svg">
  <defs
     id="defs1">
    <style
       id="style1">
      .cls-1, .cls-2 {
        fill-rule: evenodd;
        stroke-width: 0px;
      }

      .cls-2 {
        fill: #fff;
      }
    </style>
  </defs>
  <g
     id="Layer_1-2"
     data-name="Layer 1">
    <path
       class="cls-2"
       d="M 359.8,142.18 V 74.61 L 457.62,0 555.44,74.6 v 67.57 l 359.8,117.18 -13.99,148.39 -31.26,-9.94 -44.46,432.49 31.14,-6.62 L 846.51,957.6 457.63,1047.83 68.75,957.6 58.59,823.67 89.73,830.29 45.27,397.8 14.01,407.74 0,259.36 Z"
       id="path1" />
    <path
       class="cls-1"
       d="M 457.62,222.3 51.3,351.37 45.43,289.19 457.62,154.93 l 412.19,134.26 -5.87,62.18 z m 0,-103.81 -55.39,18.78 V 95.61 l 55.39,-42.24 55.39,42.24 v 41.66 z m 0,885.79 -348.94,-80.96 -3.52,-46.34 352.45,74.95 352.45,-74.95 -3.52,46.34 -348.94,80.96 z M 441.46,264.49 V 915.21 L 133.8,844.34 85.58,375.2 441.45,264.49 v 0 z M 272.38,509.22 402.23,489.48 V 334.12 l -134.24,38.1 z M 233.89,381.9 132.67,410.63 143,528.9 237.27,514.56 Z M 473.78,264.49 829.65,375.2 781.43,844.34 473.77,915.21 V 264.49 Z m 207.57,117.41 -3.38,132.66 94.27,14.34 10.33,-118.27 z m -144.28,151.57 1.45,106.93 80.26,-1.92 1.92,-98.52 z m 105.79,-24.25 4.39,-137 -134.24,-38.1 v 155.36 z"
       id="path2" />
  </g>
</svg>
